src/assets/logo_red.svg

<svg width="63" height="63" viewBox="0 0 63 63" fill="none" xmlns="http://www.w3.org/2000/svg">
<path fill-rule="evenodd" clip-rule="evenodd" d="M28.207 16.2826L37.0433 36.8439L41.7163 26.0535L37.723 16.2826H28.207ZM41.2913 46.8696L54.2908 16.2826H62.9571L49.9576 46.8696H41.2913Z" fill="#CF241C"/>
<path fill-rule="evenodd" clip-rule="evenodd" d="M21.6323 37.2524C25.3566 35.3232 27.8682 31.6775 27.8682 27.4978C27.8682 21.3038 22.3525 16.2826 15.5485 16.2826C15.5201 16.2826 15.4917 16.2827 15.4634 16.2829V16.2826H0V23.2496H14.6139V23.2504C14.637 23.25 14.6601 23.2497 14.6833 23.2496H14.7146C17.1005 23.2581 19.0321 25.1949 19.0321 27.5828C19.0321 29.9759 17.092 31.9159 14.6989 31.9159C14.6705 31.9159 14.6422 31.9156 14.6139 31.9151V31.9159H4.22153C4.22153 31.9159 4.22153 31.9159 4.22153 31.9159H0V46.8696H8.6663V38.713H13.2644L18.862 46.8696L18.8621 46.8695L28.2081 46.8696L28.2082 46.8695L21.6323 37.2524ZM13.8605 38.713L13.8914 38.7568L13.8142 38.713H13.8605Z" fill="#CF241C"/>
</svg>

<svg xmlns="http://www.w3.org/2000/svg" width="63" height="63" fill="none"><path fill="#CF241C" fill-rule="evenodd" d="m28.207 16.283 8.836 20.56 4.673-10.79-3.993-9.77h-9.516ZM41.291 46.87l13-30.587h8.666l-13 30.587h-8.666ZM21.632 37.252c3.725-1.929 6.236-5.575 6.236-9.754 0-6.194-5.515-11.215-12.32-11.215H0v6.967h14.714a4.333 4.333 0 1 1-.1 8.665H0V46.87h8.666v-8.157h4.598l5.598 8.157h9.346l-6.576-9.618Zm-7.772 1.461.031.044-.077-.044h.046Z" clip-rule="evenodd"/></svg>
